packages/kaspersky-hexa-ui-icons/src/iconsSVGs/16/StatusDangerSolid.svg

<svg width="16" height="16" viewBox="0 0 16 16" fill="none" xmlns="http://www.w3.org/2000/svg">
<path fill-rule="evenodd" clip-rule="evenodd" d="M8 15C11.866 15 15 11.866 15 8C15 4.13401 11.866 1 8 1C4.13401 1 1 4.13401 1 8C1 11.866 4.13401 15 8 15ZM8 3.63477C8.41421 3.63477 8.75 3.97055 8.75 4.38477V8.38477C8.75 8.79898 8.41421 9.13477 8 9.13477C7.58579 9.13477 7.25 8.79898 7.25 8.38477V4.38477C7.25 3.97055 7.58579 3.63477 8 3.63477ZM8.85039 10.9997C8.85039 11.4691 8.46983 11.8497 8.00039 11.8497C7.53095 11.8497 7.15039 11.4691 7.15039 10.9997C7.15039 10.5302 7.53095 10.1497 8.00039 10.1497C8.46983 10.1497 8.85039 10.5302 8.85039 10.9997Z" fill="black"/>
</svg>

<svg xmlns="http://www.w3.org/2000/svg" width="16" height="16" fill="none" viewBox="0 0 16 16"><path fill="#000" fill-rule="evenodd" d="M8 15c3.866 0 7-3.134 7-7s-3.134-7-7-7-7 3.134-7 7 3.134 7 7 7M8 3.6348a.75.75 0 0 1 .75.75v4a.75.75 0 0 1-1.5 0v-4a.75.75 0 0 1 .75-.75m.8504 7.3649a.85.85 0 1 1-1.7 0 .85.85 0 0 1 1.7 0"/></svg>
